X: 4
T: Off To California
R: hornpipe
M: 4/4
L: 1/8
K: Gmaj
(3DEF|: "G"GFGB "D"AGED|"G"GBdg "C"e2 (3def|"G"gfgd "Em"edBG|"Am"ABAG "D"E2 (3DEF|
"G"GFGB "D"AGED|"G"GBdg "C"e2 (3def|"G"gfgd "Em"edBG|[1 "D"(3ABA GF "G"G2 (3DEF:|[2 "D"(3ABA GF "G"G2 (3def|]
|:"E"gfeg "Bm"fedf|"C"edef "Em"edBd|"G"gfgd "Em"edBG|"Am"ABAG "D"E2 (3DEF|
"G"GFGB "D"AGED|"G"GBdg "C"e2 (3def|"G"gfgd "Em"edBG|[1 "D"(3ABA GF "G"G2 (3def:|[2 "D"(3ABA GF "G"G4|]


Tune 30	Setting 21503

